common/src/main/resources/icons/expui/toolwindow/commander@20x20.svg

<svg xmlns="http://www.w3.org/2000/svg" width="20" height="20" viewBox="0 0 24 24"><path fill="#F48FB1" d="M12 3c1.74 0 3.36.5 4.74 1.35C17.38 3.53 18.38 3 19.5 3A3.5 3.5 0 0 1 23 6.5c0 1.5-.95 2.78-2.28 3.28.18.72.28 1.45.28 2.22a9 9 0 0 1-9 9 9 9 0 0 1-9-9c0-.77.1-1.5.28-2.22A3.51 3.51 0 0 1 1 6.5 3.5 3.5 0 0 1 4.5 3c1.12 0 2.12.53 2.76 1.35C8.64 3.5 10.26 3 12 3m0 2a7 7 0 0 0-7 7 7 7 0 0 0 7 7 7 7 0 0 0 7-7 7 7 0 0 0-7-7m4.19 5.3c.36 1.33-.11 2.61-1.04 2.86-.94.26-1.98-.62-2.34-1.96-.36-1.33.11-2.61 1.04-2.86.94-.25 1.98.62 2.34 1.96m-8.38 0c.36-1.34 1.4-2.21 2.34-1.96.93.25 1.4 1.53 1.04 2.86-.36 1.34-1.4 2.22-2.34 1.96-.93-.25-1.4-1.53-1.04-2.86M12 14c.6 0 1.13.19 1.5.5l-1 1c0 .42.34.75.75.75a.75.75 0 0 0 .75-.75.5.5 0 0 1 .5-.5.5.5 0 0 1 .5.5 1.75 1.75 0 0 1-1.75 1.75c-.49 0-.93-.2-1.25-.53-.32.33-.76.53-1.25.53A1.75 1.75 0 0 1 9 15.5a.5.5 0 0 1 .5-.5.5.5 0 0 1 .5.5.75.75 0 0 0 .75.75.75.75 0 0 0 .75-.75l-1-1c.37-.31.9-.5 1.5-.5"/></svg>

<!--
  - The MIT License (MIT)
  -
  - Copyright (c) 2015-2022 Elior "Mallowigi" Boukhobza
  -
  - Permission is hereby granted, free of charge, to any person obtaining a copy
  - of this software and associated documentation files (the "Software"), to deal
  - in the Software without restriction, including without limitation the rights
  - to use, copy, modify, merge, publish, distribute, sublicense, and/or sell
  - copies of the Software, and to permit persons to whom the Software is
  - furnished to do so, subject to the following conditions:
  -
  - The above copyright notice and this permission notice shall be included in all
  - copies or substantial portions of the Software.
  -
  - THE SOFTWARE IS PROVIDED "AS IS", WITHOUT WARRANTY OF ANY KIND, EXPRESS OR
  - IMPLIED, INCLUDING BUT NOT LIMITED TO THE WARRANTIES OF MERCHANTABILITY,
  - FITNESS FOR A PARTICULAR PURPOSE AND NONINFRINGEMENT. IN NO EVENT SHALL THE
  - AUTHORS OR COPYRIGHT HOLDERS BE LIABLE FOR ANY CLAIM, DAMAGES OR OTHER
  - LIABILITY, WHETHER IN AN ACTION OF CONTRACT, TORT OR OTHERWISE, ARISING FROM,
  - OUT OF OR IN CONNECTION WITH THE SOFTWARE OR THE USE OR OTHER DEALINGS IN THE
  - SOFTWARE.
  -
  -
  -->


<svg xmlns="http://www.w3.org/2000/svg" version="1.1" width="20px" height="20px" viewBox="0 0 24 24">
  <path fill="#F48FB1"
        d="M12,3C13.74,3 15.36,3.5 16.74,4.35C17.38,3.53 18.38,3 19.5,3A3.5,3.5 0 0,1 23,6.5C23,8 22.05,9.28 20.72,9.78C20.9,10.5 21,11.23 21,12A9,9 0 0,1 12,21A9,9 0 0,1 3,12C3,11.23 3.1,10.5 3.28,9.78C1.95,9.28 1,8 1,6.5A3.5,3.5 0 0,1 4.5,3C5.62,3 6.62,3.53 7.26,4.35C8.64,3.5 10.26,3 12,3M12,5A7,7 0 0,0 5,12A7,7 0 0,0 12,19A7,7 0 0,0 19,12A7,7 0 0,0 12,5M16.19,10.3C16.55,11.63 16.08,12.91 15.15,13.16C14.21,13.42 13.17,12.54 12.81,11.2C12.45,9.87 12.92,8.59 13.85,8.34C14.79,8.09 15.83,8.96 16.19,10.3M7.81,10.3C8.17,8.96 9.21,8.09 10.15,8.34C11.08,8.59 11.55,9.87 11.19,11.2C10.83,12.54 9.79,13.42 8.85,13.16C7.92,12.91 7.45,11.63 7.81,10.3M12,14C12.6,14 13.13,14.19 13.5,14.5L12.5,15.5C12.5,15.92 12.84,16.25 13.25,16.25A0.75,0.75 0 0,0 14,15.5A0.5,0.5 0 0,1 14.5,15A0.5,0.5 0 0,1 15,15.5A1.75,1.75 0 0,1 13.25,17.25C12.76,17.25 12.32,17.05 12,16.72C11.68,17.05 11.24,17.25 10.75,17.25A1.75,1.75 0 0,1 9,15.5A0.5,0.5 0 0,1 9.5,15A0.5,0.5 0 0,1 10,15.5A0.75,0.75 0 0,0 10.75,16.25A0.75,0.75 0 0,0 11.5,15.5L10.5,14.5C10.87,14.19 11.4,14 12,14Z" />
</svg>
